X: 16
T:Bobby Casey's
R:Hornpipe
S:Kevin Burke (If The Cap Fits)
M:4/4
L:1/8
K:Am
ed|:cAAB c3d|eaaf gedB|c2cA B2Bc|
d2de dBGB|AGAB c>d|eaaf gedB|cAAc dBGB|
(3ABA AB A2:: (3ABc|daa2 aged|daa2 aged|egg2 gedB|
egg2 gedB|A3B c3d|eaaf gedB|cAAc dBGB|
(3ABA AB A2:|

